lib/healthicons/icons/solid/typography/U.svg

<svg fill="none" height="48" viewBox="0 0 48 48" width="48" xmlns="http://www.w3.org/2000/svg"><path clip-rule="evenodd" d="m16 10c1.1046 0 2 .8954 2 2v16c0 3.3137 2.6863 6 6 6s6-2.6863 6-6v-16c0-1.1046.8954-2 2-2s2 .8954 2 2v16c0 5.5228-4.4772 10-10 10s-10-4.4772-10-10v-16c0-1.1046.8954-2 2-2z" fill="#333" fill-rule="evenodd"/></svg>

<svg width="48" height="48" viewBox="0 0 48 48" fill="none" xmlns="http://www.w3.org/2000/svg">
<path fill-rule="evenodd" clip-rule="evenodd" d="M16 10C17.1046 10 18 10.8954 18 12V28C18 31.3137 20.6863 34 24 34C27.3137 34 30 31.3137 30 28V12C30 10.8954 30.8954 10 32 10C33.1046 10 34 10.8954 34 12V28C34 33.5228 29.5228 38 24 38C18.4772 38 14 33.5228 14 28V12C14 10.8954 14.8954 10 16 10Z" fill="#333333"/>
</svg>
